packages/core/src/svgs/networks/mono/kardia.svg

<svg width="24" height="24" viewBox="0 0 24 24" fill="none" xmlns="http://www.w3.org/2000/svg">
<path d="M10.2222 5.58051L10.6495 9.74943L12.2326 4.99744L10.2222 5.58051Z" fill="#C9CED6"/>
<path d="M7.62012 3L10.2214 5.58043L12.2318 4.99671L7.62012 3Z" fill="#E1E4E8"/>
<path d="M9.65334 9.4575L10.6494 9.74935L10.2214 5.58043L7.62012 3L9.65334 9.4575Z" fill="#F1F2F4"/>
<path d="M5.49251 3.43518L7.86189 11.2523L5.44235 15.3319L2 7.65361L5.49251 3.43518Z" fill="#C9CED6"/>
<path d="M14.6926 4.81738L16.9988 8.32224L12.8008 10.3505L14.6926 4.81738Z" fill="#F1F2F4"/>
<path d="M19.5908 3.57019L16.9986 8.32219L14.6924 4.81733L19.5908 3.57019Z" fill="#F7F8F9"/>
<path d="M21.987 8.7889L16.998 8.32219L19.5896 3.57019L21.987 8.7889Z" fill="#E1E4E8"/>
<path d="M19.2215 12.5092C19.1218 12.3343 16.998 8.32227 16.998 8.32227L22 8.77098L19.2215 12.5092Z" fill="#C9CED6"/>
<path d="M12.8013 10.3505L19.2221 12.5092L16.998 8.32227L12.8013 10.3505Z" fill="#E1E4E8"/>
<path d="M10.1401 11.6606L13.4007 20.5771L17.6802 14.2771L10.1401 11.6606Z" fill="#A83C3B"/>
<path d="M11.114 21L5.44238 15.332L7.86193 11.2531L11.114 21Z" fill="#C73C38"/>
<path d="M13.0098 14.3979L13.4007 20.5777L10.1401 11.6613L13.0098 14.3979Z" fill="#F1F2F4"/>
<path d="M17.6802 14.2771L13.0092 14.3979L10.1401 11.6606L17.6802 14.2771Z" fill="#E1E4E8"/>
<path d="M13.4006 20.5776L13.0098 14.3985L17.6808 14.277L13.4006 20.5776Z" fill="#C9CED6"/>
<path d="M2 7.65422L7.86189 11.2529L5.49251 3.43579L2 7.65422Z" fill="#E1E4E8"/>
<path d="M7.86193 11.2531L5.44238 15.332L9.48538 16.1176L7.86193 11.2531Z" fill="#DB4545"/>
<path d="M11.114 21L5.44238 15.332L7.86193 11.2531L11.114 21Z" fill="#C9CED6"/>
<path d="M7.86193 11.2531L5.44238 15.332L9.48538 16.1176L7.86193 11.2531Z" fill="#E1E4E8"/>
</svg>

<svg xmlns="http://www.w3.org/2000/svg" width="24" height="24" fill="none" viewBox="0 0 24 24">
    <path fill="#C9CED6" d="m10.222 5.58.428 4.17 1.583-4.753z"/>
    <path fill="#E1E4E8" d="m7.62 3 2.601 2.58 2.01-.583z"/>
    <path fill="#F1F2F4" d="m9.653 9.458.996.291-.428-4.169L7.621 3z"/>
    <path fill="#C9CED6" d="m5.493 3.435 2.369 7.817-2.42 4.08L2 7.654z"/>
    <path fill="#F1F2F4" d="m14.693 4.817 2.306 3.505-4.198 2.029z"/>
    <path fill="#F7F8F9" d="M19.59 3.57 17 8.322l-2.307-3.505z"/>
    <path fill="#E1E4E8" d="m21.987 8.789-4.989-.467L19.59 3.57z"/>
    <path fill="#C9CED6" d="M19.222 12.51c-.1-.176-2.224-4.188-2.224-4.188L22 8.771z"/>
    <path fill="#E1E4E8" d="m12.801 10.35 6.421 2.16-2.224-4.188z"/>
    <path fill="#A83C3B" d="m10.14 11.66 3.26 8.917 4.28-6.3z"/>
    <path fill="#C73C38" d="m11.114 21-5.672-5.668 2.42-4.079z"/>
    <path fill="#F1F2F4" d="m13.01 14.398.39 6.18-3.26-8.917z"/>
    <path fill="#E1E4E8" d="m17.68 14.277-4.67.12-2.87-2.736z"/>
    <path fill="#C9CED6" d="m13.4 20.578-.39-6.18 4.67-.121z"/>
    <path fill="#E1E4E8" d="m2 7.654 5.862 3.599-2.37-7.817z"/>
    <path fill="#DB4545" d="m7.862 11.253-2.42 4.079 4.043.786z"/>
    <path fill="#C9CED6" d="m11.114 21-5.672-5.668 2.42-4.079z"/>
    <path fill="#E1E4E8" d="m7.862 11.253-2.42 4.079 4.043.786z"/>
</svg>
